Newaita-dark/actions/22/page-simple.svg

<svg height="22" viewBox="0 0 22 22" width="22" xmlns="http://www.w3.org/2000/svg"><path d="m6.820312 1.992188c-1.007812 0-1.816406.808593-1.816406 1.816406v14.554687c0 1.007813.808594 1.820313 1.816406 1.820313h8.1875c1.007813 0 1.820313-.8125 1.820313-1.820313v-14.554687c0-1.007813-.8125-1.816406-1.820313-1.816406zm.910157 1.816406h6.367187c.503906 0 .910156.40625.910156.910156v12.734375c0 .503906-.40625.910156-.910156.910156h-6.367187c-.503907 0-.910157-.40625-.910157-.910156v-12.734375c0-.503906.40625-.910156.910157-.910156zm0 0" fill="#e0e0e0"/></svg>

<?xml version="1.0" encoding="UTF-8"?>
<svg xmlns="http://www.w3.org/2000/svg" xmlns:xlink="http://www.w3.org/1999/xlink" width="22px" height="22px" viewBox="0 0 22 22" version="1.1">
<g id="surface1">
<path style=" stroke:none;fill-rule:nonzero;fill:rgb(87.843138%,87.843138%,87.843138%);fill-opacity:1;" d="M 6.820312 1.992188 C 5.8125 1.992188 5.003906 2.800781 5.003906 3.808594 L 5.003906 18.363281 C 5.003906 19.371094 5.8125 20.183594 6.820312 20.183594 L 15.007812 20.183594 C 16.015625 20.183594 16.828125 19.371094 16.828125 18.363281 L 16.828125 3.808594 C 16.828125 2.800781 16.015625 1.992188 15.007812 1.992188 Z M 7.730469 3.808594 L 14.097656 3.808594 C 14.601562 3.808594 15.007812 4.214844 15.007812 4.71875 L 15.007812 17.453125 C 15.007812 17.957031 14.601562 18.363281 14.097656 18.363281 L 7.730469 18.363281 C 7.226562 18.363281 6.820312 17.957031 6.820312 17.453125 L 6.820312 4.71875 C 6.820312 4.214844 7.226562 3.808594 7.730469 3.808594 Z M 7.730469 3.808594 "/>
</g>
</svg>
